src/topics/icons/origami.svg

<svg height="261" preserveAspectRatio="xMidYMid" viewBox="0 0 256 261" width="256" xmlns="http://www.w3.org/2000/svg"><path d="m92.5 92.2v-92.2h-92.5zm163.5-21.3-33.3-32.8-46.3 46-83.9-84.1v260.9l130.2-130.5v-59.5z" fill="#0991ff"/><path d="m0 0 92.5 92.2v-92.2z" fill="#62ccfd"/><path d="m92.5 260.9v-260.9l130.2 130.4z" fill="#0991ff"/><path d="m222.7 38.1v92.3l-46.3-46.3z" fill="#62ccfd"/><path d="m222.7 38.1v32.8h33.3z" fill="#0991ff"/></svg>

<?xml version="1.0" encoding="UTF-8" standalone="no"?>
<svg width="256px" height="261px" viewBox="0 0 256 261" version="1.1" xmlns="http://www.w3.org/2000/svg" xmlns:xlink="http://www.w3.org/1999/xlink" preserveAspectRatio="xMidYMid">
	<g>
		<path d="M92.5,92.2 L92.5,0 L0,0 L92.5,92.2 Z M256,70.9 L222.7,38.1 L176.4,84.1 L92.5,0 L92.5,260.9 L222.7,130.4 L222.7,70.9 L256,70.9 Z" fill="#0991FF"></path>
		<path d="M0,0 L92.5,92.2 L92.5,0 L0,0" fill="#62CCFD"></path>
		<path d="M92.5,260.9 L92.5,0 L222.7,130.4 L92.5,260.9" fill="#0991FF"></path>
		<path d="M222.7,38.1 L222.7,130.4 L176.4,84.1 L222.7,38.1 Z" fill="#62CCFD"></path>
		<path d="M222.7,38.1 L222.7,70.9 L256,70.9 L222.7,38.1 Z" fill="#0991FF"></path>
	</g>
</svg>
